X: 12933
T: Fiddler's Chair, The
R: reel
M: 4/4
K: Gmajor
~B2Ac BG~G2|DEFG ABcA|GEED ~E3d|edBG A2GA|
~B2Ac BG~G2|DEFG ABcA|GEED ~E2Bd|1 edBA ~G2A:|2 edBA ~G3d||
|:edef gage|gage dBBA|G2 (3BAG Bd~d2|edBG A2Bd|
edef gage|gage dBBA|GABG Bd~d2|1 edBA ~G3d:|2 edBA ~G3A||

